X:1
T:Prysgol, 76.76 D
T:Prysgol, 76.76 D
T:William Owen (1814-1898)
T:Public Domain Courtesy of the Cyber Hymnal™
C:William Owen (1814-1898)
Z:Public Domain
Z:Courtesy of the Cyber Hymnal™
%%score ( 1 2 ) ( 3 4 )
L:1/8
Q:1/4=170
M:4/2
K:F
V:1 treble 
V:2 treble 
V:3 bass 
V:4 bass 
V:1
 [CF]4 | [FA]6 [FA]2 ([FA]2 G2) ([F-A]2 [FB]2) | [Fc]8 [FA]4 c3 B | [FA]4 (B3 A) [FG]4 (A3 G) | %4
 F12 [CF]4 | [FA]6 [FA]2 ([FA]2 G2) ([FA]2 [EB]2) | [Fc]8 [FA]4 [EG]4 | [FA]4 [Ec]4 [Fc]4 [F=B]4 | %8
 [Ec]12 [FA]4 | [Gc]6 [Ec]2 [Fc]4 [FA]4 | [Fd]8 [Fc]4 A4 | A4 d4 [Fd]4 [E^c]4 | [Fd]12 [Gc]4 | %13
 [FA]6 ([FA]2 [FA]2) (G2 [FA]2) [EB]2 | [Fc]8 [FA]4 (c3 B) | [FA]4 (B3 A) [FG]4 (A3 G) | [CF]12 |] %17
V:2
 x4 | x10 G2 x4 | x12 G4 | x4 F4 x E4 x3 | F12 x4 | x10 G2 x4 | x16 | x16 | x16 | x16 | %10
 x12 (A2 G2) | (F2 G2) (A2 G2) x8 | x16 | x10 G2 x4 | x12 G4 | x4 F4 x E4 x3 | x12 |] %17
V:3
 [F,A,]4 | [F,C]6 [F,C]2 C4 C4 | [A,C]8 [F,C]4 [E,C]4 | [F,C]4 [B,,D]4 [C,B,]4 (C3 B,) | %4
 [F,A,]12 [F,A,]4 | [F,C]6 [F,C]2 C4 C4 | [A,C]8 [F,C]4 [C,C]4 | [F,C]4 [A,C]4 [D,D]4 [G,D]4 | %8
 [C,C]12 [F,C]4 | [E,C]6 [C,G,]2 [F,A,]4 [F,C]4 | B,8 [F,C]4 ([F,C]2 [E,^C]2) | %11
 ([D,D]2 [E,A,]2) ([F,A,]2 [G,B,]2) A,4 [A,,A,]4 | [D,A,]12 [E,C]4 | [F,C]6 [F,C]2 C4 C4 | %14
 [A,C]8 [F,C]4 [E,C]4 | [F,C]4 [B,,D]4 [C,B,]4 (C3 B,) | [F,,F,A,]12 |] %17
V:4
 x4 | x8 (F,2 E,2) (F,2 G,2) | x16 | x12 C,4 | x16 | x8 (F,2 E,2) (F,2 G,2) | x16 | x16 | x16 | %9
 x16 | B,8 x8 | x8 A,4 x4 | x16 | x8 (F,2 E,2) (F,2 G,2) | x16 | x12 C,4 | x12 |] %17

